icon-themes/breeze_svg/cmd/lc_basicshapes.can.svg

<svg xmlns="http://www.w3.org/2000/svg" viewBox="0 0 24 24">
 <path 
     style="fill:#4d4d4d" 
     d="M 12 4 A 8 4 0 0 0 4 8 A 8 4 0 0 0 12 12 A 8 4 0 0 0 20 8 A 8 4 0 0 0 12 4 z M 4 9 L 4 16 C 4 18.209139 7.581722 20 12 20 C 16.418278 20 20 18.209139 20 16 L 20 9 C 20 11.209139 16.418278 13 12 13 C 7.581722 13 4 11.209139 4 9 z "
     />
 </svg>

<svg viewBox="0 0 24 24" xmlns="http://www.w3.org/2000/svg"><path d="m12 4a8 4 0 0 0 -8 4 8 4 0 0 0 8 4 8 4 0 0 0 8-4 8 4 0 0 0 -8-4zm-8 5v7c0 2.209139 3.581722 4 8 4s8-1.790861 8-4v-7c0 2.209139-3.581722 4-8 4s-8-1.790861-8-4z" fill="#4d4d4d"/></svg>
